X:1
T:Mr. William Donald's Favorite (Rhynie)
T:Mr. William Donald's Favorite (Rhynie)
T:Alexander Walker
C:Alexander Walker
L:1/8
Q:1/4=120
M:4/4
K:Bb
V:1 treble 
V:1
"^Slow" F | B>c (d/c/).B/.A/ B/A/G/F/ E/D/C/B,/ | B>c e/d/c/B/ cCCF | %3
 B>c (d/c/).B/.A/ B/A/G/F/ E/D/C/B,/ | B>dc>d B/F/G/B/ DB,B, :| F | B>df>b f/d/B/d/ fd/f/ | %7
 b>ag>f (d<g)g>a | b>fdB (A<B)F>D | [B,F]b f/d/c/B/ d(BB)f | g>bf>g (df)c>d | B>c B/c/d/B/ cCCB, | %12
 D>FE>G F>AG>B | d>f (b/g/)f/e/ dBB || %14

